www/assets/icons/add_alarm.svg

<svg width="24" height="24" viewBox="0 0 24 24" xmlns="http://www.w3.org/2000/svg" fill='currentColor'><path d="M7.88 3.45999L6.6 1.92999L2 5.77999L3.29 7.30999L7.88 3.45999ZM22 5.78999L17.4 1.92999L16.11 3.45999L20.71 7.31999L22 5.78999ZM12 4.06999C7.03 4.06999 3 8.09999 3 13.07C3 18.04 7.02 22.07 12 22.07C16.97 22.07 21 18.04 21 13.07C21 8.09999 16.97 4.06999 12 4.06999ZM12 20.07C8.13 20.07 5 16.94 5 13.07C5 9.19999 8.13 6.06999 12 6.06999C15.87 6.06999 19 9.19999 19 13.07C19 16.94 15.87 20.07 12 20.07ZM13 9.06999H11V12.07H8V14.07H11V17.07H13V14.07H16V12.07H13V9.06999Z"/></svg>

<svg xmlns="http://www.w3.org/2000/svg" width="24" height="24" viewBox="0 0 24 24" fill='currentColor'><path d="M7.88 3.46 6.6 1.93 2 5.78l1.29 1.53zM22 5.79l-4.6-3.86-1.29 1.53 4.6 3.86zM12 4.07a9 9 0 0 0-9 9c0 4.97 4.02 9 9 9a9 9 0 0 0 0-18m0 16c-3.87 0-7-3.13-7-7s3.13-7 7-7 7 3.13 7 7-3.13 7-7 7m1-11h-2v3H8v2h3v3h2v-3h3v-2h-3z"/></svg>
